!!!COM: Palestrina, Giovanni Perluigi da
!!!OPR: Missa In festis Apostolorum (II)
!!!OMD: Gloria
!!!OTL: Quoniam
**kern	**kern	**kern	**kern	**kern
*Ibass	*Itenor	*Itenor	*Icalto	*Icant
!Bassus	!Tenor 2	!Tenor 1	!Altus	!Cantus
*clefF4	*clefGv2	*clefGv2	*clefG2	*clefG2
*k[]	*k[]	*k[]	*k[]	*k[]
*D:dor	*D:dor	*D:dor	*D:dor	*D:dor
*M4/2	*M4/2	*M4/2	*M4/2	*M4/2
=110	=110	=110	=110	=110
0r	0r	0r	1.e	0r
.	.	.	2d	.
=111	=111	=111	=111	=111
0r	1.A	0r	1c	0r
.	.	.	1e	.
.	2G	.	.	.
=112	=112	=112	=112	=112
0r	1F	0r	1.f	1r
.	1A	.	.	[1a
.	.	.	4e	.
.	.	.	4d	.
=113	=113	=113	=113	=113
0r	2.c	0r	2.e	2a]
.	.	.	.	2g
.	4B-	.	4d	.
.	2A	.	2c	1f
.	2B-	.	2d	.
=114	=114	=114	=114	=114
0r	2A	1r	2e	1a
.	2.F	.	1f	.
.	.	[1A	.	[1cc
.	4G	.	.	.
.	4A	.	4e	.
.	4B	.	4d	.
=115	=115	=115	=115	=115
0r	4c	2A]	4e	2cc]
.	4A	.	4f	.
.	2.d	2G	2g	2b-
.	.	1F	2r	[1a
.	4c	.	.	.
.	4A	.	[2c	.
.	4B	.	.	.
=116	=116	=116	=116	=116
0r	2c	1A	4c]	1a]
.	.	.	4B	.
.	2F	.	4c	.
.	.	.	4d	.
.	1C	2.c	2e	2g
.	.	.	2e	4c
.	.	4B-	.	4d
=117	=117	=117	=117	=117
0r	0r	2A	2c	4e
.	.	.	.	4f
.	.	2G	2.e	2g
.	.	1B-	.	2f
.	.	.	4d	.
.	.	.	[2d	2d
=118	=118	=118	=118	=118
2r	0r	1A	2d]	1e
1A	.	.	2c#	.
.	.	2D	2d	2f
2G	.	[2d	2B-	2g
=119	=119	=119	=119	=119
2F	2r	2d]	1A	1a
2D	1A	2d	.	.
2F	.	1c	2r	1r
2E	2G	.	2e	.
=120	=120	=120	=120	=120
1D	2F	1d	2f	2r
.	2A	.	1f	1a
1C	2.c	1r	.	.
.	.	.	2e	2g
.	4B-	.	.	.
=121	=121	=121	=121	=121
1D	4A	2r	1d	2f
.	4G	.	.	.
.	1F	1A	.	2a
2AA	.	.	1c	1cc
2C	2E	[2G	.	.
=122	=122	=122	=122	=122
1D	2D	4G]	1f	2b-
.	.	4F	.	.
.	2F	2A	.	1a
1C	1G	2.c	1e	.
.	.	.	.	[2g
.	.	4B-	.	.
=123	=123	=123	=123	=123
1D	2r	1A	2.d	2g]
.	2.d	.	.	2f
.	.	.	4c	.
[1GG	.	1G	4B-	2.b-
.	4c	.	4A	.
.	[2B-	.	4G	.
.	.	.	4F	4a
=124	=124	=124	=124	=124
0GG]	4B-]	0B-	1G	0g
.	4A	.	.	.
.	4G	.	.	.
.	4F#	.	.	.
.	1G	.	1d	.
=125	=125	=125	=125	=125
[0D	[0F#	[0A	[0d	[0a
=126	=126	=126	=126	=126
0D]	0F#]	0A]	0d]	0a]
*-	*-	*-	*-	*-
!!!CDT: 1525/^1526/-1594/2/2
!!!OCY: Italia
!!!AGN: Mass (Paraphrase)
!!!AST: renaissance, vocal
!!!ASW: Gregorian Mass
!!!PWK: Masses, Book Mantuan II
!!!RNB: Cadence finals: A
!!!YOR: Le Opere Complete, v. 19, p. 1
!!!YOO: Rome, Italy: Fratelli Scalera
!!!END: 1992//
!!!EED: John Miller
!!!YEC: Copyright 2000, John Miller
!!!YEN: United States of America
!!!YEM: Rights to all derivative electronic formats reserved.
!!!YEM: Refer to licensing agreement for further details.
!!!YEM: This file must be accompanied by the licensing agreement.
!!!YEM: A copy of the licensing agreement may be found at http://www.music-cog.ohio-state.edu/HumdrumDatabases/Palestrina/license.txt
!!!EMD: converted to Humdrum by Bret Aarden
